packages/icons/svg/Various_Shutter_64px.svg

<svg xmlns="http://www.w3.org/2000/svg" viewBox="0 0 64 64"><path d="M57 5H7a2 2 0 00-2 2v7a2 2 0 002 2h2v41a2 2 0 002 2h42a2 2 0 002-2V16h2a2 2 0 002-2V7a2 2 0 00-2-2zM12 29.5h40V32H12zm0 4.5h40v2.5H12zm40-6.5H12V25h40zm-40 11h40V41H12zM52 23H12v-2.5h40zM12 43h18.5v13H12zm21.5 13V43H52v13zM52 18.5H12V16h40zm4-5.5H8V8h48z"/></svg>

<svg xmlns="http://www.w3.org/2000/svg" viewBox="0 0 64 64"><defs></defs><g id="Icon"><path  d="M57,5H7A2,2,0,0,0,5,7v7a2,2,0,0,0,2,2H9V57a2,2,0,0,0,2,2H53a2,2,0,0,0,2-2V16h2a2,2,0,0,0,2-2V7A2,2,0,0,0,57,5ZM12,29.5H52V32H12ZM12,34H52v2.5H12Zm40-6.5H12V25H52Zm-40,11H52V41H12ZM52,23H12V20.5H52ZM12,43H30.5V56H12ZM33.5,56V43H52V56ZM52,18.5H12V16H52ZM56,13H8V8H56Z"/></g></svg>
